stock/96x96/status/gpm-primary-100.svg

<?xml version="1.0" encoding="UTF-8" standalone="no"?>
<!-- Created with Inkscape (http://www.inkscape.org/) -->

<svg
   xmlns:dc="http://purl.org/dc/elements/1.1/"
   xmlns:cc="http://creativecommons.org/ns#"
   xmlns:rdf="http://www.w3.org/1999/02/22-rdf-syntax-ns#"
   xmlns:svg="http://www.w3.org/2000/svg"
   xmlns="http://www.w3.org/2000/svg"
   xmlns:xlink="http://www.w3.org/1999/xlink"
   xmlns:sodipodi="http://sodipodi.sourceforge.net/DTD/sodipodi-0.dtd"
   xmlns:inkscape="http://www.inkscape.org/namespaces/inkscape"
   width="96"
   height="96"
   id="svg2"
   sodipodi:version="0.32"
   inkscape:version="0.48.4 r9939"
   version="1.0"
   sodipodi:docname="gpm-primary-100.svg"
   inkscape:output_extension="org.inkscape.output.svg.inkscape"
   style="display:inline">
  <defs
     id="defs4">
    <linearGradient
       id="linearGradient4081">
      <stop
         style="stop-color:#aaaaaa;stop-opacity:1;"
         offset="0"
         id="stop4083" />
      <stop
         style="stop-color:#f0f0f0;stop-opacity:1;"
         offset="1"
         id="stop4085" />
    </linearGradient>
    <linearGradient
       inkscape:collect="always"
       xlink:href="#linearGradient4081-3"
       id="linearGradient4529"
       gradientUnits="userSpaceOnUse"
       x1="71"
       y1="17"
       x2="71"
       y2="5" />
    <linearGradient
       id="linearGradient4081-3">
      <stop
         style="stop-color:#aaaaaa;stop-opacity:1;"
         offset="0"
         id="stop4083-1" />
      <stop
         style="stop-color:#f0f0f0;stop-opacity:1;"
         offset="1"
         id="stop4085-4" />
    </linearGradient>
    <linearGradient
       id="linearGradient3295-9">
      <stop
         style="stop-color:#559829;stop-opacity:1;"
         offset="0"
         id="stop3297-2" />
      <stop
         style="stop-color:#86c837;stop-opacity:1;"
         offset="1"
         id="stop3299-0" />
    </linearGradient>
    <linearGradient
       y2="44.99865"
       x2="9.8299322"
       y1="55.716991"
       x1="9.8299322"
       gradientTransform="matrix(0.875,0,0,0.83333333,-30.642046,-96.809885)"
       gradientUnits="userSpaceOnUse"
       id="linearGradient3276"
       xlink:href="#linearGradient3295-9"
       inkscape:collect="always" />
    <linearGradient
       inkscape:collect="always"
       xlink:href="#linearGradient4081"
       id="linearGradient3763"
       x1="39"
       y1="72"
       x2="39.196381"
       y2="24.266857"
       gradientUnits="userSpaceOnUse" />
    <linearGradient
       inkscape:collect="always"
       xlink:href="#linearGradient3295-9"
       id="linearGradient3807"
       x1="39"
       y1="68"
       x2="39"
       y2="28"
       gradientUnits="userSpaceOnUse" />
    <linearGradient
       inkscape:collect="always"
       xlink:href="#linearGradient3295-9"
       id="linearGradient4365"
       gradientUnits="userSpaceOnUse"
       x1="39"
       y1="68"
       x2="39"
       y2="28" />
    <linearGradient
       inkscape:collect="always"
       xlink:href="#linearGradient4081"
       id="linearGradient4367"
       gradientUnits="userSpaceOnUse"
       x1="39"
       y1="72"
       x2="39.196381"
       y2="24.266857" />
  </defs>
  <sodipodi:namedview
     id="base"
     pagecolor="#ffffff"
     bordercolor="#e7e7e7"
     borderopacity="1"
     inkscape:pageopacity="0.0"
     inkscape:pageshadow="2"
     inkscape:zoom="5.7279604"
     inkscape:cx="54.804013"
     inkscape:cy="48.890246"
     inkscape:document-units="px"
     inkscape:current-layer="layer1"
     showgrid="true"
     inkscape:showpageshadow="false"
     showguides="true"
     inkscape:guide-bbox="true"
     inkscape:window-width="1024"
     inkscape:window-height="728"
     inkscape:window-x="0"
     inkscape:window-y="0"
     inkscape:window-maximized="1"
     borderlayer="true"
     inkscape:snap-global="true">
    <inkscape:grid
       type="xygrid"
       id="grid3672"
       visible="true"
       enabled="true"
       empspacing="8"
       snapvisiblegridlinesonly="true" />
  </sodipodi:namedview>
  <metadata
     id="metadata7">
    <rdf:RDF>
      <cc:Work
         rdf:about="">
        <dc:format>image/svg+xml</dc:format>
        <dc:type
           rdf:resource="http://purl.org/dc/dcmitype/StillImage" />
      </cc:Work>
    </rdf:RDF>
  </metadata>
  <g
     inkscape:label="Icon"
     inkscape:groupmode="layer"
     id="layer1"
     style="display:inline">
    <g
       id="g4355"
       transform="translate(0,73)">
      <rect
         transform="translate(0,-74)"
         y="28"
         x="10"
         height="40"
         width="70"
         id="rect3799"
         style="fill:url(#linearGradient4365);fill-opacity:1;stroke:none" />
      <path
         d="m 12,-52.03125 c -4.9542317,0 -9.03125,4.077018 -9.03125,9.03125 l 0,36 c 0,4.9542318 4.0770182,9.03125 9.03125,9.03125 l 66,0 c 4.954232,0 9.03125,-4.0770183 9.03125,-9.03125 l 0,-6.96875 0.96875,0 c 2.75259,0 5.03125,-2.27866 5.03125,-5.03125 l 0,-12 c 0,-2.75259 -2.27866,-5.03125 -5.03125,-5.03125 l -0.96875,0 0,-6.96875 c 0,-4.954232 -4.077018,-9.03125 -9.03125,-9.03125 l -66,0 z m 4,12.0625 58,0 c 0.690105,0 0.96875,0.278645 0.96875,0.96875 l 0,28 c 0,0.690106 -0.278643,0.96875 -0.96875,0.96875 l -58,0 c -0.690107,0 -0.96875,-0.278644 -0.96875,-0.96875 l 0,-28 c 0,-0.690105 0.278645,-0.96875 0.96875,-0.96875 z"
         id="path3797"
         style="opacity:0.07999998;fill:#000000;fill-opacity:1;stroke:none"
         inkscape:original="M 12 -50.96875 C 7.6219324 -50.96875 4.03125 -47.378068 4.03125 -43 L 4.03125 -7 C 4.03125 -2.6219324 7.6219324 0.96875 12 0.96875 L 78 0.96875 C 82.378068 0.96875 85.96875 -2.6219324 85.96875 -7 L 85.96875 -15.03125 L 88 -15.03125 C 90.170657 -15.03125 91.96875 -16.829343 91.96875 -19 L 91.96875 -31 C 91.96875 -33.170657 90.170657 -34.96875 88 -34.96875 L 85.96875 -34.96875 L 85.96875 -43 C 85.96875 -47.378068 82.378068 -50.96875 78 -50.96875 L 12 -50.96875 z M 16 -41.03125 L 74 -41.03125 C 75.188373 -41.03125 76.03125 -40.188373 76.03125 -39 L 76.03125 -11 C 76.03125 -9.8116264 75.188374 -8.96875 74 -8.96875 L 16 -8.96875 C 14.811626 -8.96875 13.96875 -9.8116264 13.96875 -11 L 13.96875 -39 C 13.96875 -40.188373 14.811627 -41.03125 16 -41.03125 z "
         inkscape:radius="1.0537632"
         sodipodi:type="inkscape:offset" />
      <path
         d="m 12,-50.96875 c -4.3780676,0 -7.96875,3.590682 -7.96875,7.96875 l 0,36 c 0,4.3780676 3.5906824,7.96875 7.96875,7.96875 l 66,0 c 4.378068,0 7.96875,-3.5906824 7.96875,-7.96875 l 0,-8.03125 2.03125,0 c 2.170657,0 3.96875,-1.798093 3.96875,-3.96875 l 0,-12 c 0,-2.170657 -1.798093,-3.96875 -3.96875,-3.96875 l -2.03125,0 0,-8.03125 c 0,-4.378068 -3.590682,-7.96875 -7.96875,-7.96875 l -66,0 z m 4,9.9375 58,0 c 1.188373,0 2.03125,0.842877 2.03125,2.03125 l 0,28 c 0,1.1883736 -0.842876,2.03125 -2.03125,2.03125 l -58,0 c -1.188374,0 -2.03125,-0.8428764 -2.03125,-2.03125 l 0,-28 c 0,-1.188373 0.842877,-2.03125 2.03125,-2.03125 z"
         id="path3793"
         style="opacity:0.1;fill:#000000;fill-opacity:1;stroke:none"
         inkscape:original="M 12 -50.03125 C 8.1285599 -50.03125 4.96875 -46.87144 4.96875 -43 L 4.96875 -7 C 4.96875 -3.1285599 8.1285599 0.03125 12 0.03125 L 78 0.03125 C 81.87144 0.03125 85.03125 -3.1285599 85.03125 -7 L 85.03125 -15.96875 L 88 -15.96875 C 89.653332 -15.96875 91.03125 -17.346668 91.03125 -19 L 91.03125 -31 C 91.03125 -32.653332 89.653332 -34.03125 88 -34.03125 L 85.03125 -34.03125 L 85.03125 -43 C 85.03125 -46.87144 81.87144 -50.03125 78 -50.03125 L 12 -50.03125 z M 16 -41.96875 L 74 -41.96875 C 75.670668 -41.96875 76.96875 -40.670668 76.96875 -39 L 76.96875 -11 C 76.96875 -9.3293319 75.670668 -8.03125 74 -8.03125 L 16 -8.03125 C 14.329332 -8.03125 13.03125 -9.3293319 13.03125 -11 L 13.03125 -39 C 13.03125 -40.670668 14.329332 -41.96875 16 -41.96875 z "
         inkscape:radius="0.93108988"
         sodipodi:type="inkscape:offset" />
      <path
         d="m 12,-50.03125 c -3.8714401,0 -7.03125,3.15981 -7.03125,7.03125 l 0,36 c 0,3.8714401 3.1598099,7.03125 7.03125,7.03125 l 66,0 c 3.87144,0 7.03125,-3.1598099 7.03125,-7.03125 l 0,-8.96875 2.96875,0 c 1.653332,0 3.03125,-1.377918 3.03125,-3.03125 l 0,-12 c 0,-1.653332 -1.377918,-3.03125 -3.03125,-3.03125 l -2.96875,0 0,-8.96875 c 0,-3.87144 -3.15981,-7.03125 -7.03125,-7.03125 l -66,0 z m 4,8.0625 58,0 c 1.670668,0 2.96875,1.298082 2.96875,2.96875 l 0,28 c 0,1.6706681 -1.298082,2.96875 -2.96875,2.96875 l -58,0 c -1.670668,0 -2.96875,-1.2980819 -2.96875,-2.96875 l 0,-28 c 0,-1.670668 1.298082,-2.96875 2.96875,-2.96875 z"
         id="path3789"
         style="opacity:0.15;fill:#000000;fill-opacity:1;stroke:none"
         inkscape:original="M 12 -49 C 8.672667 -49 6 -46.327333 6 -43 L 6 -7 C 6 -3.672667 8.672667 -1 12 -1 L 78 -1 C 81.327333 -1 84 -3.672667 84 -7 L 84 -17 L 88 -17 C 89.108 -17 90 -17.892 90 -19 L 90 -31 C 90 -32.108 89.108 -33 88 -33 L 84 -33 L 84 -43 C 84 -46.327333 81.327333 -49 78 -49 L 12 -49 z M 16 -43 L 74 -43 C 76.216 -43 78 -41.216 78 -39 L 78 -11 C 78 -8.784 76.216 -7 74 -7 L 16 -7 C 13.784 -7 12 -8.784 12 -11 L 12 -39 C 12 -41.216 13.784 -43 16 -43 z "
         inkscape:radius="1.0160781"
         sodipodi:type="inkscape:offset" />
      <path
         style="opacity:0.3;fill:#000000;fill-opacity:1;stroke:none"
         d="m 12,-49 c -3.327333,0 -6,2.672667 -6,6 l 0,36 c 0,3.327333 2.672667,6 6,6 l 66,0 c 3.327333,0 6,-2.672667 6,-6 l 0,-10 4,0 c 1.108,0 2,-0.892 2,-2 l 0,-12 c 0,-1.108 -0.892,-2 -2,-2 l -4,0 0,-10 c 0,-3.327333 -2.672667,-6 -6,-6 l -66,0 z m 4,6 58,0 c 2.216,0 4,1.784 4,4 l 0,28 c 0,2.216 -1.784,4 -4,4 l -58,0 c -2.216,0 -4,-1.784 -4,-4 l 0,-28 c 0,-2.216 1.784,-4 4,-4 z"
         id="path3783"
         sodipodi:nodetypes="cccccccccccccccccccccccc"
         inkscape:connector-curvature="0" />
      <path
         sodipodi:nodetypes="cccccccccccccccccccccccc"
         id="rect2975"
         transform="translate(0,-74)"
         d="m 12,24 c -3.327333,0 -6,2.672667 -6,6 l 0,36 c 0,3.327333 2.672667,6 6,6 l 66,0 c 3.327333,0 6,-2.672667 6,-6 l 0,-10 4,0 c 1.108,0 2,-0.892 2,-2 l 0,-12 c 0,-1.108 -0.892,-2 -2,-2 l -4,0 0,-10 c 0,-3.327333 -2.672667,-6 -6,-6 l -66,0 z m 4,6 58,0 c 2.216,0 4,1.784 4,4 l 0,28 c 0,2.216 -1.784,4 -4,4 l -58,0 c -2.216,0 -4,-1.784 -4,-4 l 0,-28 c 0,-2.216 1.784,-4 4,-4 z"
         style="fill:url(#linearGradient4367);fill-opacity:1;stroke:none"
         inkscape:connector-curvature="0" />
      <path
         id="path3765"
         transform="translate(0,-74)"
         d="m 12,24 c -3.327333,0 -6,2.672667 -6,6 l 0,1 c 0,-3.327333 2.672667,-6 6,-6 l 66,0 c 3.327333,0 6,2.672667 6,6 l 0,-1 c 0,-3.327333 -2.672667,-6 -6,-6 l -66,0 z m 72,16 0,1 4,0 c 1.108,0 2,0.892 2,2 l 0,-1 c 0,-1.108 -0.892,-2 -2,-2 l -4,0 z m -72,22 0,1 c 0,2.216 1.784,4 4,4 l 58,0 c 2.216,0 4,-1.784 4,-4 l 0,-1 c 0,2.216 -1.784,4 -4,4 l -58,0 c -2.216,0 -4,-1.784 -4,-4 z"
         style="opacity:0.75;fill:#ffffff;fill-opacity:1;stroke:none"
         inkscape:connector-curvature="0" />
      <path
         id="path3774"
         transform="translate(0,-74)"
         d="m 16,29 c -2.216,0 -4,1.784 -4,4 l 0,1 c 0,-2.216 1.784,-4 4,-4 l 58,0 c 2.216,0 4,1.784 4,4 l 0,-1 c 0,-2.216 -1.784,-4 -4,-4 l -58,0 z m 74,24 c 0,1.108 -0.892,2 -2,2 l -4,0 0,1 4,0 c 1.108,0 2,-0.892 2,-2 l 0,-1 z M 6,65 6,66 c 0,3.327333 2.672667,6 6,6 l 66,0 c 3.327333,0 6,-2.672667 6,-6 l 0,-1 c 0,3.327333 -2.672667,6 -6,6 L 12,71 C 8.672667,71 6,68.327333 6,65 z"
         style="opacity:0.15;fill:#000000;fill-opacity:1;stroke:none"
         inkscape:connector-curvature="0" />
    </g>
  </g>
</svg>

<?xml version="1.0" encoding="UTF-8" standalone="no"?>
<!-- Created with Inkscape (http://www.inkscape.org/) -->

<svg
   xmlns:dc="http://purl.org/dc/elements/1.1/"
   xmlns:cc="http://creativecommons.org/ns#"
   xmlns:rdf="http://www.w3.org/1999/02/22-rdf-syntax-ns#"
   xmlns:svg="http://www.w3.org/2000/svg"
   xmlns="http://www.w3.org/2000/svg"
   xmlns:xlink="http://www.w3.org/1999/xlink"
   xmlns:sodipodi="http://sodipodi.sourceforge.net/DTD/sodipodi-0.dtd"
   xmlns:inkscape="http://www.inkscape.org/namespaces/inkscape"
   width="96"
   height="96"
   id="svg2"
   sodipodi:version="0.32"
   inkscape:version="0.47 r22583"
   version="1.0"
   sodipodi:docname="gpm-primary-100.svg"
   inkscape:output_extension="org.inkscape.output.svg.inkscape"
   style="display:inline">
  <defs
     id="defs4">
    <linearGradient
       id="linearGradient4081">
      <stop
         style="stop-color:#aaaaaa;stop-opacity:1;"
         offset="0"
         id="stop4083" />
      <stop
         style="stop-color:#f0f0f0;stop-opacity:1;"
         offset="1"
         id="stop4085" />
    </linearGradient>
    <linearGradient
       inkscape:collect="always"
       xlink:href="#linearGradient4081-3"
       id="linearGradient4529"
       gradientUnits="userSpaceOnUse"
       x1="71"
       y1="17"
       x2="71"
       y2="5" />
    <linearGradient
       id="linearGradient4081-3">
      <stop
         style="stop-color:#aaaaaa;stop-opacity:1;"
         offset="0"
         id="stop4083-1" />
      <stop
         style="stop-color:#f0f0f0;stop-opacity:1;"
         offset="1"
         id="stop4085-4" />
    </linearGradient>
    <linearGradient
       id="linearGradient3295-9">
      <stop
         style="stop-color:#559829;stop-opacity:1;"
         offset="0"
         id="stop3297-2" />
      <stop
         style="stop-color:#86c837;stop-opacity:1;"
         offset="1"
         id="stop3299-0" />
    </linearGradient>
    <linearGradient
       y2="44.99865"
       x2="9.8299322"
       y1="55.716991"
       x1="9.8299322"
       gradientTransform="matrix(0.875,0,0,0.83333333,-30.642046,-96.809885)"
       gradientUnits="userSpaceOnUse"
       id="linearGradient3276"
       xlink:href="#linearGradient3295-9"
       inkscape:collect="always" />
    <linearGradient
       inkscape:collect="always"
       xlink:href="#linearGradient4081"
       id="linearGradient3763"
       x1="39"
       y1="72"
       x2="39.196381"
       y2="24.266857"
       gradientUnits="userSpaceOnUse" />
    <linearGradient
       inkscape:collect="always"
       xlink:href="#linearGradient3295-9"
       id="linearGradient3807"
       x1="39"
       y1="68"
       x2="39"
       y2="28"
       gradientUnits="userSpaceOnUse" />
  </defs>
  <sodipodi:namedview
     id="base"
     pagecolor="#ffffff"
     bordercolor="#e7e7e7"
     borderopacity="1"
     inkscape:pageopacity="0.0"
     inkscape:pageshadow="2"
     inkscape:zoom="5.7279604"
     inkscape:cx="80.554889"
     inkscape:cy="27.94038"
     inkscape:document-units="px"
     inkscape:current-layer="layer1"
     showgrid="true"
     inkscape:showpageshadow="false"
     showguides="true"
     inkscape:guide-bbox="true"
     inkscape:window-width="1920"
     inkscape:window-height="1027"
     inkscape:window-x="0"
     inkscape:window-y="25"
     inkscape:window-maximized="1"
     borderlayer="true"
     inkscape:snap-global="true">
    <inkscape:grid
       type="xygrid"
       id="grid3672"
       visible="true"
       enabled="true"
       empspacing="8"
       snapvisiblegridlinesonly="true" />
  </sodipodi:namedview>
  <metadata
     id="metadata7">
    <rdf:RDF>
      <cc:Work
         rdf:about="">
        <dc:format>image/svg+xml</dc:format>
        <dc:type
           rdf:resource="http://purl.org/dc/dcmitype/StillImage" />
      </cc:Work>
    </rdf:RDF>
  </metadata>
  <g
     inkscape:label="Icon"
     inkscape:groupmode="layer"
     id="layer1"
     style="display:inline"
     transform="translate(0,74)">
    <rect
       style="opacity:1;fill:url(#linearGradient3807);fill-opacity:1;stroke:none"
       id="rect3799"
       width="70"
       height="40"
       x="10"
       y="28"
       transform="translate(0,-74)" />
    <path
       sodipodi:type="inkscape:offset"
       inkscape:radius="1.0537632"
       inkscape:original="M 12 -50.96875 C 7.6219324 -50.96875 4.03125 -47.378068 4.03125 -43 L 4.03125 -7 C 4.03125 -2.6219324 7.6219324 0.96875 12 0.96875 L 78 0.96875 C 82.378068 0.96875 85.96875 -2.6219324 85.96875 -7 L 85.96875 -15.03125 L 88 -15.03125 C 90.170657 -15.03125 91.96875 -16.829343 91.96875 -19 L 91.96875 -31 C 91.96875 -33.170657 90.170657 -34.96875 88 -34.96875 L 85.96875 -34.96875 L 85.96875 -43 C 85.96875 -47.378068 82.378068 -50.96875 78 -50.96875 L 12 -50.96875 z M 16 -41.03125 L 74 -41.03125 C 75.188373 -41.03125 76.03125 -40.188373 76.03125 -39 L 76.03125 -11 C 76.03125 -9.8116264 75.188374 -8.96875 74 -8.96875 L 16 -8.96875 C 14.811626 -8.96875 13.96875 -9.8116264 13.96875 -11 L 13.96875 -39 C 13.96875 -40.188373 14.811627 -41.03125 16 -41.03125 z "
       style="opacity:0.07999998;fill:#000000;fill-opacity:1;stroke:none"
       id="path3797"
       d="m 12,-52.03125 c -4.9542317,0 -9.03125,4.077018 -9.03125,9.03125 l 0,36 c 0,4.9542318 4.0770182,9.03125 9.03125,9.03125 l 66,0 c 4.954232,0 9.03125,-4.0770183 9.03125,-9.03125 l 0,-6.96875 0.96875,0 c 2.75259,0 5.03125,-2.27866 5.03125,-5.03125 l 0,-12 c 0,-2.75259 -2.27866,-5.03125 -5.03125,-5.03125 l -0.96875,0 0,-6.96875 c 0,-4.954232 -4.077018,-9.03125 -9.03125,-9.03125 l -66,0 z m 4,12.0625 58,0 c 0.690105,0 0.96875,0.278645 0.96875,0.96875 l 0,28 c 0,0.690106 -0.278643,0.96875 -0.96875,0.96875 l -58,0 c -0.690107,0 -0.96875,-0.278644 -0.96875,-0.96875 l 0,-28 c 0,-0.690105 0.278645,-0.96875 0.96875,-0.96875 z" />
    <path
       sodipodi:type="inkscape:offset"
       inkscape:radius="0.93108988"
       inkscape:original="M 12 -50.03125 C 8.1285599 -50.03125 4.96875 -46.87144 4.96875 -43 L 4.96875 -7 C 4.96875 -3.1285599 8.1285599 0.03125 12 0.03125 L 78 0.03125 C 81.87144 0.03125 85.03125 -3.1285599 85.03125 -7 L 85.03125 -15.96875 L 88 -15.96875 C 89.653332 -15.96875 91.03125 -17.346668 91.03125 -19 L 91.03125 -31 C 91.03125 -32.653332 89.653332 -34.03125 88 -34.03125 L 85.03125 -34.03125 L 85.03125 -43 C 85.03125 -46.87144 81.87144 -50.03125 78 -50.03125 L 12 -50.03125 z M 16 -41.96875 L 74 -41.96875 C 75.670668 -41.96875 76.96875 -40.670668 76.96875 -39 L 76.96875 -11 C 76.96875 -9.3293319 75.670668 -8.03125 74 -8.03125 L 16 -8.03125 C 14.329332 -8.03125 13.03125 -9.3293319 13.03125 -11 L 13.03125 -39 C 13.03125 -40.670668 14.329332 -41.96875 16 -41.96875 z "
       style="opacity:0.1;fill:#000000;fill-opacity:1;stroke:none"
       id="path3793"
       d="m 12,-50.96875 c -4.3780676,0 -7.96875,3.590682 -7.96875,7.96875 l 0,36 c 0,4.3780676 3.5906824,7.96875 7.96875,7.96875 l 66,0 c 4.378068,0 7.96875,-3.5906824 7.96875,-7.96875 l 0,-8.03125 2.03125,0 c 2.170657,0 3.96875,-1.798093 3.96875,-3.96875 l 0,-12 c 0,-2.170657 -1.798093,-3.96875 -3.96875,-3.96875 l -2.03125,0 0,-8.03125 c 0,-4.378068 -3.590682,-7.96875 -7.96875,-7.96875 l -66,0 z m 4,9.9375 58,0 c 1.188373,0 2.03125,0.842877 2.03125,2.03125 l 0,28 c 0,1.1883736 -0.842876,2.03125 -2.03125,2.03125 l -58,0 c -1.188374,0 -2.03125,-0.8428764 -2.03125,-2.03125 l 0,-28 c 0,-1.188373 0.842877,-2.03125 2.03125,-2.03125 z" />
    <path
       sodipodi:type="inkscape:offset"
       inkscape:radius="1.0160781"
       inkscape:original="M 12 -49 C 8.672667 -49 6 -46.327333 6 -43 L 6 -7 C 6 -3.672667 8.672667 -1 12 -1 L 78 -1 C 81.327333 -1 84 -3.672667 84 -7 L 84 -17 L 88 -17 C 89.108 -17 90 -17.892 90 -19 L 90 -31 C 90 -32.108 89.108 -33 88 -33 L 84 -33 L 84 -43 C 84 -46.327333 81.327333 -49 78 -49 L 12 -49 z M 16 -43 L 74 -43 C 76.216 -43 78 -41.216 78 -39 L 78 -11 C 78 -8.784 76.216 -7 74 -7 L 16 -7 C 13.784 -7 12 -8.784 12 -11 L 12 -39 C 12 -41.216 13.784 -43 16 -43 z "
       style="opacity:0.15;fill:#000000;fill-opacity:1;stroke:none"
       id="path3789"
       d="m 12,-50.03125 c -3.8714401,0 -7.03125,3.15981 -7.03125,7.03125 l 0,36 c 0,3.8714401 3.1598099,7.03125 7.03125,7.03125 l 66,0 c 3.87144,0 7.03125,-3.1598099 7.03125,-7.03125 l 0,-8.96875 2.96875,0 c 1.653332,0 3.03125,-1.377918 3.03125,-3.03125 l 0,-12 c 0,-1.653332 -1.377918,-3.03125 -3.03125,-3.03125 l -2.96875,0 0,-8.96875 c 0,-3.87144 -3.15981,-7.03125 -7.03125,-7.03125 l -66,0 z m 4,8.0625 58,0 c 1.670668,0 2.96875,1.298082 2.96875,2.96875 l 0,28 c 0,1.6706681 -1.298082,2.96875 -2.96875,2.96875 l -58,0 c -1.670668,0 -2.96875,-1.2980819 -2.96875,-2.96875 l 0,-28 c 0,-1.670668 1.298082,-2.96875 2.96875,-2.96875 z" />
    <path
       sodipodi:nodetypes="cccccccccccccccccccccccc"
       id="path3783"
       d="m 12,-49 c -3.327333,0 -6,2.672667 -6,6 l 0,36 c 0,3.327333 2.672667,6 6,6 l 66,0 c 3.327333,0 6,-2.672667 6,-6 l 0,-10 4,0 c 1.108,0 2,-0.892 2,-2 l 0,-12 c 0,-1.108 -0.892,-2 -2,-2 l -4,0 0,-10 c 0,-3.327333 -2.672667,-6 -6,-6 l -66,0 z m 4,6 58,0 c 2.216,0 4,1.784 4,4 l 0,28 c 0,2.216 -1.784,4 -4,4 l -58,0 c -2.216,0 -4,-1.784 -4,-4 l 0,-28 c 0,-2.216 1.784,-4 4,-4 z"
       style="fill:#000000;fill-opacity:1;stroke:none;opacity:0.3" />
    <path
       style="opacity:1;fill:url(#linearGradient3763);fill-opacity:1;stroke:none"
       d="m 12,24 c -3.327333,0 -6,2.672667 -6,6 l 0,36 c 0,3.327333 2.672667,6 6,6 l 66,0 c 3.327333,0 6,-2.672667 6,-6 l 0,-10 4,0 c 1.108,0 2,-0.892 2,-2 l 0,-12 c 0,-1.108 -0.892,-2 -2,-2 l -4,0 0,-10 c 0,-3.327333 -2.672667,-6 -6,-6 l -66,0 z m 4,6 58,0 c 2.216,0 4,1.784 4,4 l 0,28 c 0,2.216 -1.784,4 -4,4 l -58,0 c -2.216,0 -4,-1.784 -4,-4 l 0,-28 c 0,-2.216 1.784,-4 4,-4 z"
       transform="translate(0,-74)"
       id="rect2975"
       sodipodi:nodetypes="cccccccccccccccccccccccc" />
    <path
       style="opacity:0.75;fill:#ffffff;fill-opacity:1;stroke:none"
       d="M 12 24 C 8.672667 24 6 26.672667 6 30 L 6 31 C 6 27.672667 8.672667 25 12 25 L 78 25 C 81.327333 25 84 27.672667 84 31 L 84 30 C 84 26.672667 81.327333 24 78 24 L 12 24 z M 84 40 L 84 41 L 88 41 C 89.108 41 90 41.892 90 43 L 90 42 C 90 40.892 89.108 40 88 40 L 84 40 z M 12 62 L 12 63 C 12 65.216 13.784 67 16 67 L 74 67 C 76.216 67 78 65.216 78 63 L 78 62 C 78 64.216 76.216 66 74 66 L 16 66 C 13.784 66 12 64.216 12 62 z "
       transform="translate(0,-74)"
       id="path3765" />
    <path
       style="opacity:0.15;fill:#000000;fill-opacity:1;stroke:none"
       d="M 16 29 C 13.784 29 12 30.784 12 33 L 12 34 C 12 31.784 13.784 30 16 30 L 74 30 C 76.216 30 78 31.784 78 34 L 78 33 C 78 30.784 76.216 29 74 29 L 16 29 z M 90 53 C 90 54.108 89.108 55 88 55 L 84 55 L 84 56 L 88 56 C 89.108 56 90 55.108 90 54 L 90 53 z M 6 65 L 6 66 C 6 69.327333 8.672667 72 12 72 L 78 72 C 81.327333 72 84 69.327333 84 66 L 84 65 C 84 68.327333 81.327333 71 78 71 L 12 71 C 8.672667 71 6 68.327333 6 65 z "
       transform="translate(0,-74)"
       id="path3774" />
  </g>
</svg>
